icons/mobile/24/svg/extension-fill-24.svg

<svg width="24" height="24" viewBox="0 0 24 24" fill="none" xmlns="http://www.w3.org/2000/svg">
<path d="M12.5 2.99902C13.881 2.99902 15 4.11802 15 5.49902V7.07422C15.947 7.12922 16.8931 7.20817 17.8301 7.32617C19.206 7.49921 20.242 8.66601 20.249 10.0439L20.25 10.042V17.9414L20.249 17.957L20.2354 18.2109C20.1105 19.4751 19.119 20.5106 17.8301 20.6729C16.1101 20.8889 14.359 20.999 12.625 20.999C10.88 20.999 9.11767 20.8879 7.38867 20.6689C6.02097 20.4958 5.0002 19.3191 5 17.9404V16.499C5 16.223 5.224 15.999 5.5 15.999H7.5C8.58791 15.999 9.49985 15.1172 9.5 14.0293V13.9688C9.49985 12.8809 8.58791 11.999 7.5 11.999H5.5C5.224 11.999 5 11.775 5 11.499V10.0576C5.0002 8.6779 6.02097 7.50223 7.38867 7.3291C8.25367 7.2191 9.126 7.13703 10 7.08203V5.49902C10 4.11802 11.119 2.99902 12.5 2.99902Z" fill="black"/>
</svg>

<!-- This Source Code Form is subject to the terms of the Mozilla Public
   - License, v. 2.0. If a copy of the MPL was not distributed with this
   - file, You can obtain one at http://mozilla.org/MPL/2.0/. -->
<svg xmlns="http://www.w3.org/2000/svg" width="24" height="24" fill="none" viewBox="0 0 24 24">
    <path fill="#000" d="M12.5 2.999a2.5 2.5 0 0 1 2.5 2.5v1.575c.947.055 1.893.134 2.83.252a2.76 2.76 0 0 1 2.419 2.718l.001-.002v7.9l-.001.015-.014.254a2.764 2.764 0 0 1-2.405 2.462 41.8 41.8 0 0 1-10.441-.004A2.746 2.746 0 0 1 5 17.94V16.5a.5.5 0 0 1 .5-.5h2c1.088 0 2-.882 2-1.97v-.06c0-1.088-.912-1.97-2-1.97h-2a.5.5 0 0 1-.5-.5v-1.441A2.746 2.746 0 0 1 7.389 7.33Q8.688 7.164 10 7.082V5.499a2.5 2.5 0 0 1 2.5-2.5" />
</svg>
